Newaita-dark/.places-mint/32/user-desktop.svg

<?xml version="1.0" encoding="UTF-8"?>
<svg xmlns="http://www.w3.org/2000/svg" xmlns:xlink="http://www.w3.org/1999/xlink" width="32px" height="32px" viewBox="0 0 32 32" version="1.1">
<defs>
<linearGradient id="linear0" gradientUnits="userSpaceOnUse" x1="254" y1="233.5" x2="254" y2="254.666672" gradientTransform="matrix(0.062506,0,0,0.062506,-0.00000381506,13.438785)">
<stop offset="0" style="stop-color:rgb(0%,0%,0%);stop-opacity:0.27451;"/>
<stop offset="1" style="stop-color:rgb(0%,0%,0%);stop-opacity:0;"/>
</linearGradient>
<radialGradient id="radial0" gradientUnits="userSpaceOnUse" cx="450.908936" cy="189.579361" fx="450.908936" fy="189.579361" r="21.166656" gradientTransform="matrix(0.00000017417,-0.0781325,-0.140638,-0.000000101539,54.115213,63.595333)">
<stop offset="0" style="stop-color:rgb(0%,0%,0%);stop-opacity:0.313726;"/>
<stop offset="0.222222" style="stop-color:rgb(0%,0%,0%);stop-opacity:0.27451;"/>
<stop offset="1" style="stop-color:rgb(0%,0%,0%);stop-opacity:0;"/>
</radialGradient>
<radialGradient id="radial1" gradientUnits="userSpaceOnUse" cx="450.908936" cy="189.579361" fx="450.908936" fy="189.579361" r="21.166656" gradientTransform="matrix(-0.00000017417,0.0781325,0.140638,0.000000101539,-22.362178,-7.527479)">
<stop offset="0" style="stop-color:rgb(0%,0%,0%);stop-opacity:0.313726;"/>
<stop offset="0.222222" style="stop-color:rgb(0%,0%,0%);stop-opacity:0.27451;"/>
<stop offset="1" style="stop-color:rgb(0%,0%,0%);stop-opacity:0;"/>
</radialGradient>
<radialGradient id="radial2" gradientUnits="userSpaceOnUse" cx="450.908936" cy="189.579361" fx="450.908936" fy="189.579361" r="21.166656" gradientTransform="matrix(-0.00000017417,-0.0781325,0.140638,-0.000000101539,-22.362178,63.595333)">
<stop offset="0" style="stop-color:rgb(0%,0%,0%);stop-opacity:0.313726;"/>
<stop offset="0.222222" style="stop-color:rgb(0%,0%,0%);stop-opacity:0.27451;"/>
<stop offset="1" style="stop-color:rgb(0%,0%,0%);stop-opacity:0;"/>
</radialGradient>
<radialGradient id="radial3" gradientUnits="userSpaceOnUse" cx="450.908936" cy="189.579361" fx="450.908936" fy="189.579361" r="21.166656" gradientTransform="matrix(0.00000017417,0.0781325,-0.140638,0.000000101539,54.115211,-7.527479)">
<stop offset="0" style="stop-color:rgb(0%,0%,0%);stop-opacity:0.313726;"/>
<stop offset="0.222222" style="stop-color:rgb(0%,0%,0%);stop-opacity:0.27451;"/>
<stop offset="1" style="stop-color:rgb(0%,0%,0%);stop-opacity:0;"/>
</radialGradient>
<linearGradient id="linear1" gradientUnits="userSpaceOnUse" x1="254" y1="233.5" x2="254" y2="-168.666656" gradientTransform="matrix(0.062506,0,0,0.062506,0,13.438783)">
<stop offset="0" style="stop-color:rgb(34.509805%,34.509805%,34.509805%);stop-opacity:0;"/>
<stop offset="1" style="stop-color:rgb(98.039216%,98.039216%,98.039216%);stop-opacity:0.196078;"/>
</linearGradient>
<linearGradient id="linear2" gradientUnits="userSpaceOnUse" x1="1040" y1="1695.118164" x2="1040" y2="1455.118164" gradientTransform="matrix(1,0,0,1,-0.00000251969,0)">
<stop offset="0" style="stop-color:rgb(34.509805%,34.509805%,34.509805%);stop-opacity:0;"/>
<stop offset="1" style="stop-color:rgb(98.039216%,98.039216%,98.039216%);stop-opacity:0.196078;"/>
</linearGradient>
</defs>
<g id="surface1">
<path style=" stroke:none;fill-rule:nonzero;fill:url(#linear0);" d="M 3.96875 28.035156 L 27.785156 28.035156 L 27.785156 29.355469 L 3.96875 29.355469 Z M 3.96875 28.035156 "/>
<path style=" stroke:none;fill-rule:nonzero;fill:url(#radial0);" d="M 27.785156 28.035156 L 30.429688 28.035156 L 30.429688 26.710938 L 27.785156 26.710938 Z M 27.785156 28.035156 "/>
<path style=" stroke:none;fill-rule:nonzero;fill:url(#radial1);" d="M 3.96875 28.035156 L 1.324219 28.035156 L 1.324219 29.355469 L 3.96875 29.355469 Z M 3.96875 28.035156 "/>
<path style=" stroke:none;fill-rule:nonzero;fill:url(#radial2);" d="M 3.96875 28.035156 L 1.324219 28.035156 L 1.324219 26.710938 L 3.96875 26.710938 Z M 3.96875 28.035156 "/>
<path style=" stroke:none;fill-rule:nonzero;fill:url(#radial3);" d="M 27.785156 28.035156 L 30.429688 28.035156 L 30.429688 29.355469 L 27.785156 29.355469 Z M 27.785156 28.035156 "/>
<path style=" stroke:none;fill-rule:nonzero;fill:rgb(25.882354%,25.882354%,25.882354%);fill-opacity:1;" d="M 1.984375 2.894531 L 29.769531 2.894531 C 30.5 2.894531 31.089844 3.488281 31.089844 4.21875 L 31.089844 26.710938 C 31.089844 27.441406 30.5 28.035156 29.769531 28.035156 L 1.984375 28.035156 C 1.253906 28.035156 0.660156 27.441406 0.660156 26.710938 L 0.660156 4.21875 C 0.660156 3.488281 1.253906 2.894531 1.984375 2.894531 Z M 1.984375 2.894531 "/>
<path style=" stroke:none;fill-rule:nonzero;fill:url(#linear1);" d="M 1.984375 2.894531 L 29.769531 2.894531 C 30.5 2.894531 31.089844 3.488281 31.089844 4.21875 L 31.089844 26.710938 C 31.089844 27.441406 30.5 28.035156 29.769531 28.035156 L 1.984375 28.035156 C 1.253906 28.035156 0.660156 27.441406 0.660156 26.710938 L 0.660156 4.21875 C 0.660156 3.488281 1.253906 2.894531 1.984375 2.894531 Z M 1.984375 2.894531 "/>
<path style=" stroke:none;fill-rule:nonzero;fill:rgb(90.196079%,90.196079%,90.196079%);fill-opacity:0.392157;" d="M 1.984375 2.976562 C 1.25 2.976562 0.660156 3.566406 0.660156 4.296875 L 0.660156 4.464844 C 0.660156 3.730469 1.25 3.140625 1.984375 3.140625 L 29.769531 3.140625 C 30.5 3.140625 31.089844 3.730469 31.089844 4.464844 L 31.089844 4.296875 C 31.089844 3.566406 30.5 2.976562 29.769531 2.976562 Z M 1.984375 2.976562 "/>
<path style=" stroke:none;fill-rule:nonzero;fill:rgb(12.941177%,12.941177%,12.941177%);fill-opacity:1;" d="M 1.984375 2.800781 C 1.203125 2.800781 0.566406 3.4375 0.566406 4.21875 L 0.566406 26.710938 C 0.566406 27.496094 1.203125 28.128906 1.984375 28.128906 L 29.769531 28.128906 C 30.550781 28.128906 31.183594 27.496094 31.183594 26.710938 L 31.183594 4.21875 C 31.183594 3.4375 30.550781 2.800781 29.769531 2.800781 Z M 1.984375 2.988281 L 29.769531 2.988281 C 30.449219 2.988281 30.996094 3.535156 30.996094 4.21875 L 30.996094 26.710938 C 30.996094 27.394531 30.449219 27.941406 29.769531 27.941406 L 1.984375 27.941406 C 1.300781 27.941406 0.753906 27.394531 0.753906 26.710938 L 0.753906 4.21875 C 0.753906 3.535156 1.300781 2.988281 1.984375 2.988281 Z M 1.984375 2.988281 "/>
<path style=" stroke:none;fill-rule:nonzero;fill:rgb(68.235296%,83.529413%,50.588238%);fill-opacity:1;" d="M 6.613281 24.066406 C 5.882812 24.066406 5.292969 24.65625 5.292969 25.386719 L 5.292969 28.035156 L 26.460938 28.035156 L 26.460938 25.386719 C 26.460938 24.65625 25.871094 24.066406 25.136719 24.066406 Z M 6.613281 24.066406 "/>
<path style=" stroke:none;fill-rule:nonzero;fill:rgb(0%,0%,0%);fill-opacity:0.196078;" d="M 1.984375 27.953125 C 1.25 27.953125 0.660156 27.359375 0.660156 26.628906 L 0.660156 26.460938 C 0.660156 27.195312 1.25 27.785156 1.984375 27.785156 L 29.769531 27.785156 C 30.5 27.785156 31.089844 27.195312 31.089844 26.460938 L 31.089844 26.628906 C 31.089844 27.359375 30.5 27.953125 29.769531 27.953125 Z M 1.984375 27.953125 "/>
<path style=" stroke:none;fill-rule:nonzero;fill:rgb(90.196079%,90.196079%,90.196079%);fill-opacity:0.392157;" d="M 6.613281 24.160156 C 5.882812 24.160156 5.292969 24.75 5.292969 25.484375 L 5.292969 25.648438 C 5.292969 24.917969 5.882812 24.328125 6.613281 24.328125 L 25.136719 24.328125 C 25.871094 24.328125 26.460938 24.917969 26.460938 25.648438 L 26.460938 25.484375 C 26.460938 24.75 25.871094 24.160156 25.136719 24.160156 Z M 6.613281 24.160156 "/>
<path style="fill-rule:nonzero;fill:url(#linear2);stroke-width:11.338583;stroke-linecap:round;stroke-linejoin:miter;stroke:rgb(12.941177%,12.941177%,12.941177%);stroke-opacity:1;stroke-miterlimit:4;" d="M 399.883094 1455.215441 C 355.714081 1455.215441 320.048194 1490.881328 320.048194 1535.050341 L 320.048194 1695.192537 L 1600.004772 1695.192537 L 1600.004772 1535.050341 C 1600.004772 1490.881328 1564.338884 1455.215441 1519.933674 1455.215441 Z M 399.883094 1455.215441 " transform="matrix(0.016538,0,0,0.016538,0,0)"/>
<path style=" stroke:none;fill-rule:nonzero;fill:rgb(54.509807%,76.47059%,29.019609%);fill-opacity:1;" d="M 7.277344 25.386719 C 6.910156 25.386719 6.613281 25.683594 6.613281 26.050781 C 6.613281 26.414062 6.910156 26.710938 7.277344 26.710938 C 7.644531 26.710938 7.9375 26.414062 7.9375 26.050781 C 7.9375 25.683594 7.644531 25.386719 7.277344 25.386719 Z M 9.921875 25.386719 C 9.554688 25.386719 9.261719 25.683594 9.261719 26.050781 C 9.261719 26.414062 9.554688 26.710938 9.921875 26.710938 C 10.289062 26.710938 10.585938 26.414062 10.585938 26.050781 C 10.585938 25.683594 10.289062 25.386719 9.921875 25.386719 Z M 12.570312 25.386719 C 12.203125 25.386719 11.90625 25.683594 11.90625 26.050781 C 11.90625 26.414062 12.203125 26.710938 12.570312 26.710938 C 12.933594 26.710938 13.230469 26.414062 13.230469 26.050781 C 13.230469 25.683594 12.933594 25.386719 12.570312 25.386719 Z M 24.476562 25.386719 C 24.109375 25.386719 23.816406 25.683594 23.816406 26.050781 C 23.816406 26.414062 24.109375 26.710938 24.476562 26.710938 C 24.84375 26.710938 25.136719 26.414062 25.136719 26.050781 C 25.136719 25.683594 24.84375 25.386719 24.476562 25.386719 Z M 24.476562 25.386719 "/>
<path style=" stroke:none;fill-rule:nonzero;fill:rgb(0%,0%,0%);fill-opacity:0.235294;" d="M 7.277344 25.386719 C 6.910156 25.386719 6.613281 25.683594 6.613281 26.050781 C 6.613281 26.089844 6.621094 26.132812 6.625 26.171875 C 6.683594 25.867188 6.953125 25.636719 7.277344 25.636719 C 7.601562 25.636719 7.867188 25.867188 7.925781 26.171875 C 7.933594 26.132812 7.9375 26.089844 7.9375 26.050781 C 7.9375 25.683594 7.644531 25.386719 7.277344 25.386719 Z M 9.921875 25.386719 C 9.554688 25.386719 9.261719 25.683594 9.261719 26.050781 C 9.261719 26.089844 9.265625 26.132812 9.273438 26.171875 C 9.332031 25.867188 9.597656 25.636719 9.921875 25.636719 C 10.246094 25.636719 10.515625 25.867188 10.574219 26.171875 C 10.582031 26.132812 10.585938 26.089844 10.585938 26.050781 C 10.585938 25.683594 10.289062 25.386719 9.921875 25.386719 Z M 12.570312 25.386719 C 12.203125 25.386719 11.90625 25.683594 11.90625 26.050781 C 11.90625 26.089844 11.910156 26.132812 11.917969 26.171875 C 11.976562 25.867188 12.246094 25.636719 12.570312 25.636719 C 12.894531 25.636719 13.160156 25.867188 13.21875 26.171875 C 13.226562 26.132812 13.230469 26.089844 13.230469 26.050781 C 13.230469 25.683594 12.933594 25.386719 12.570312 25.386719 Z M 24.476562 25.386719 C 24.109375 25.386719 23.816406 25.683594 23.816406 26.050781 C 23.816406 26.089844 23.820312 26.132812 23.828125 26.171875 C 23.882812 25.867188 24.152344 25.636719 24.476562 25.636719 C 24.800781 25.636719 25.066406 25.867188 25.125 26.171875 C 25.132812 26.132812 25.136719 26.089844 25.136719 26.050781 C 25.136719 25.683594 24.84375 25.386719 24.476562 25.386719 Z M 24.476562 25.386719 "/>
<path style=" stroke:none;fill-rule:nonzero;fill:rgb(100%,100%,100%);fill-opacity:0.392157;" d="M 6.625 26.171875 C 6.621094 26.214844 6.613281 26.253906 6.613281 26.296875 C 6.613281 26.664062 6.910156 26.957031 7.277344 26.957031 C 7.644531 26.957031 7.9375 26.664062 7.9375 26.296875 C 7.9375 26.253906 7.933594 26.214844 7.925781 26.171875 C 7.867188 26.480469 7.601562 26.710938 7.277344 26.710938 C 6.953125 26.710938 6.683594 26.480469 6.625 26.171875 Z M 9.273438 26.171875 C 9.265625 26.214844 9.261719 26.253906 9.261719 26.296875 C 9.261719 26.664062 9.554688 26.957031 9.921875 26.957031 C 10.289062 26.957031 10.585938 26.664062 10.585938 26.296875 C 10.585938 26.253906 10.582031 26.214844 10.574219 26.171875 C 10.515625 26.480469 10.246094 26.710938 9.921875 26.710938 C 9.597656 26.710938 9.332031 26.480469 9.273438 26.171875 Z M 11.917969 26.171875 C 11.910156 26.214844 11.90625 26.253906 11.90625 26.296875 C 11.90625 26.664062 12.203125 26.957031 12.570312 26.957031 C 12.933594 26.957031 13.230469 26.664062 13.230469 26.296875 C 13.230469 26.253906 13.226562 26.214844 13.21875 26.171875 C 13.160156 26.480469 12.894531 26.710938 12.570312 26.710938 C 12.246094 26.710938 11.976562 26.480469 11.917969 26.171875 Z M 23.828125 26.171875 C 23.820312 26.214844 23.816406 26.253906 23.816406 26.296875 C 23.816406 26.664062 24.109375 26.957031 24.476562 26.957031 C 24.84375 26.957031 25.136719 26.664062 25.136719 26.296875 C 25.136719 26.253906 25.132812 26.214844 25.125 26.171875 C 25.070312 26.480469 24.800781 26.710938 24.476562 26.710938 C 24.152344 26.710938 23.882812 26.480469 23.828125 26.171875 Z M 23.828125 26.171875 "/>
<path style="fill:none;stroke-width:11.338583;stroke-linecap:round;stroke-linejoin:miter;stroke:rgb(12.941177%,12.941177%,12.941177%);stroke-opacity:1;stroke-miterlimit:4;" d="M 440.036742 1535.050341 C 417.834137 1535.050341 399.883094 1553.001384 399.883094 1575.203989 C 399.883094 1597.170396 417.834137 1615.121439 440.036742 1615.121439 C 462.239347 1615.121439 479.954192 1597.170396 479.954192 1575.203989 C 479.954192 1553.001384 462.239347 1535.050341 440.036742 1535.050341 Z M 599.94274 1535.050341 C 577.740135 1535.050341 560.02529 1553.001384 560.02529 1575.203989 C 560.02529 1597.170396 577.740135 1615.121439 599.94274 1615.121439 C 622.145345 1615.121439 640.096388 1597.170396 640.096388 1575.203989 C 640.096388 1553.001384 622.145345 1535.050341 599.94274 1535.050341 Z M 760.084936 1535.050341 C 737.88233 1535.050341 719.931288 1553.001384 719.931288 1575.203989 C 719.931288 1597.170396 737.88233 1615.121439 760.084936 1615.121439 C 782.051343 1615.121439 800.002386 1597.170396 800.002386 1575.203989 C 800.002386 1553.001384 782.051343 1535.050341 760.084936 1535.050341 Z M 1480.016224 1535.050341 C 1457.813618 1535.050341 1440.098774 1553.001384 1440.098774 1575.203989 C 1440.098774 1597.170396 1457.813618 1615.121439 1480.016224 1615.121439 C 1502.218829 1615.121439 1519.933674 1597.170396 1519.933674 1575.203989 C 1519.933674 1553.001384 1502.218829 1535.050341 1480.016224 1535.050341 Z M 1480.016224 1535.050341 " transform="matrix(0.016538,0,0,0.016538,0,0)"/>
</g>
</svg>

<svg xmlns="http://www.w3.org/2000/svg" width="32" height="32"><defs><linearGradient id="a" gradientUnits="userSpaceOnUse" x1="254" y1="233.5" x2="254" y2="254.667" gradientTransform="matrix(.0625 0 0 .0625 0 13.439)"><stop offset="0" stop-opacity=".275"/><stop offset="1" stop-opacity="0"/></linearGradient><radialGradient id="b" gradientUnits="userSpaceOnUse" cx="450.909" cy="189.579" fx="450.909" fy="189.579" r="21.167" gradientTransform="matrix(0 -.07813 -.14064 0 54.115 63.595)"><stop offset="0" stop-opacity=".314"/><stop offset=".222" stop-opacity=".275"/><stop offset="1" stop-opacity="0"/></radialGradient><radialGradient id="c" gradientUnits="userSpaceOnUse" cx="450.909" cy="189.579" fx="450.909" fy="189.579" r="21.167" gradientTransform="matrix(0 .07813 .14064 0 -22.362 -7.527)"><stop offset="0" stop-opacity=".314"/><stop offset=".222" stop-opacity=".275"/><stop offset="1" stop-opacity="0"/></radialGradient><radialGradient id="d" gradientUnits="userSpaceOnUse" cx="450.909" cy="189.579" fx="450.909" fy="189.579" r="21.167" gradientTransform="matrix(0 -.07813 .14064 0 -22.362 63.595)"><stop offset="0" stop-opacity=".314"/><stop offset=".222" stop-opacity=".275"/><stop offset="1" stop-opacity="0"/></radialGradient><radialGradient id="e" gradientUnits="userSpaceOnUse" cx="450.909" cy="189.579" fx="450.909" fy="189.579" r="21.167" gradientTransform="matrix(0 .07813 -.14064 0 54.115 -7.527)"><stop offset="0" stop-opacity=".314"/><stop offset=".222" stop-opacity=".275"/><stop offset="1" stop-opacity="0"/></radialGradient><linearGradient id="f" gradientUnits="userSpaceOnUse" x1="254" y1="233.5" x2="254" y2="-168.667" gradientTransform="matrix(.0625 0 0 .0625 0 13.439)"><stop offset="0" stop-color="#585858" stop-opacity="0"/><stop offset="1" stop-color="#fafafa" stop-opacity=".196"/></linearGradient><linearGradient id="g" gradientUnits="userSpaceOnUse" x1="1040" y1="1695.118" x2="1040" y2="1455.118"><stop offset="0" stop-color="#585858" stop-opacity="0"/><stop offset="1" stop-color="#fafafa" stop-opacity=".196"/></linearGradient><linearGradient id="h" gradientUnits="userSpaceOnUse" x1="960" y1="1455.118" x2="960" y2="1695.118" gradientTransform="matrix(.26458 0 0 .26458 0 -215)"><stop offset="0" stop-color="#585858" stop-opacity="0"/><stop offset="1" stop-color="#fafafa" stop-opacity=".196"/></linearGradient></defs><path d="M3.969 28.035h23.816v1.32H3.97zm0 0" fill="url(#a)"/><path d="M27.785 28.035h2.645v-1.324h-2.645zm0 0" fill="url(#b)"/><path d="M3.969 28.035H1.324v1.32H3.97zm0 0" fill="url(#c)"/><path d="M3.969 28.035H1.324v-1.324H3.97zm0 0" fill="url(#d)"/><path d="M27.785 28.035h2.645v1.32h-2.645zm0 0" fill="url(#e)"/><path d="M1.984 2.895H29.77c.73 0 1.32.593 1.32 1.324V26.71c0 .73-.59 1.324-1.32 1.324H1.984c-.73 0-1.324-.594-1.324-1.324V4.219c0-.73.594-1.324 1.324-1.324zm0 0" fill="#424242"/><path d="M1.984 2.895H29.77c.73 0 1.32.593 1.32 1.324V26.71c0 .73-.59 1.324-1.32 1.324H1.984c-.73 0-1.324-.594-1.324-1.324V4.219c0-.73.594-1.324 1.324-1.324zm0 0" fill="url(#f)"/><path d="M1.984 2.977A1.32 1.32 0 0 0 .66 4.297v.168c0-.735.59-1.324 1.324-1.324H29.77c.73 0 1.32.59 1.32 1.324v-.168c0-.73-.59-1.32-1.32-1.32zm0 0" fill="#e6e6e6" fill-opacity=".392"/><path d="M1.984 2.8A1.42 1.42 0 0 0 .566 4.22V26.71c0 .785.637 1.418 1.418 1.418H29.77c.78 0 1.414-.633 1.414-1.418V4.219c0-.782-.633-1.418-1.414-1.418zm0 .188H29.77c.68 0 1.226.547 1.226 1.23v22.493c0 .684-.547 1.23-1.226 1.23H1.984c-.683 0-1.23-.546-1.23-1.23V4.219c0-.684.547-1.23 1.23-1.23zm0 0" fill="#212121"/><path d="M6.613 24.066c-.73 0-1.32.59-1.32 1.32v2.65h21.168v-2.65c0-.73-.59-1.32-1.324-1.32zm0 0" fill="#9ccc65"/><path d="M1.984 27.953A1.323 1.323 0 0 1 .66 26.63v-.168c0 .734.59 1.324 1.324 1.324H29.77c.73 0 1.32-.59 1.32-1.324v.168c0 .73-.59 1.324-1.32 1.324zm0 0" fill-opacity=".196"/><path d="M6.613 24.16c-.73 0-1.32.59-1.32 1.324v.164c0-.73.59-1.32 1.32-1.32h18.524c.734 0 1.324.59 1.324 1.32v-.164a1.32 1.32 0 0 0-1.324-1.324zm0 0" fill="#e6e6e6" fill-opacity=".392"/><path d="M399.883 1455.215c-44.169 0-79.835 35.666-79.835 79.835v160.143h1279.957V1535.05c0-44.169-35.666-79.835-80.071-79.835zm0 0" transform="rotate(.891) scale(.01654)" fill="url(#g)" stroke-width="11.339" stroke-linecap="round" stroke="#212121"/><path d="M7.277 25.387a.663.663 0 1 0 0 0zm2.645 0a.66.66 0 0 0-.66.664.663.663 0 1 0 .66-.664zm2.648 0a.663.663 0 1 0 0 0zm11.907 0a.66.66 0 0 0-.66.664.66.66 0 1 0 1.32 0 .66.66 0 0 0-.66-.664zm0 0" fill="#7cb342"/><path d="M116.426 191.149a10.615 10.615 0 0 0-10.624 10.624c0 5.812 4.75 10.561 10.624 10.561 5.875 0 10.562-4.75 10.562-10.561 0-5.875-4.687-10.624-10.562-10.624zm42.309 0c-5.875 0-10.562 4.75-10.562 10.624 0 5.812 4.687 10.561 10.562 10.561 5.874 0 10.624-4.75 10.624-10.561 0-5.875-4.75-10.624-10.624-10.624zm42.37 0a10.615 10.615 0 0 0-10.623 10.624c0 5.812 4.75 10.561 10.624 10.561 5.812 0 10.561-4.75 10.561-10.561 0-5.875-4.75-10.624-10.561-10.624zm190.483 0c-5.875 0-10.562 4.75-10.562 10.624 0 5.812 4.687 10.561 10.562 10.561 5.874 0 10.561-4.75 10.561-10.561 0-5.875-4.687-10.624-10.561-10.624zm0 0" transform="matrix(.0625 0 0 .0625 0 13.439)" fill="url(#h)" stroke-width="3" stroke-linecap="round" stroke="#212121"/></svg>
